icons/circle/48/qalculate.svg

<svg viewBox="0 0 48 48" xmlns="http://www.w3.org/2000/svg">
 <defs>
  <linearGradient id="linearGradient3764" x1="1" x2="47" gradientTransform="matrix(0 -1 1 0 -1.5e-6 48)" gradientUnits="userSpaceOnUse">
   <stop style="stop-color:#3d3d3d" offset="0"/>
   <stop style="stop-color:#474747" offset="1"/>
  </linearGradient>
 </defs>
 <path d="m36.31 5c5.859 4.062 9.688 10.831 9.688 18.5 0 12.426-10.07 22.5-22.5 22.5-7.669 0-14.438-3.828-18.5-9.688 1.037 1.822 2.306 3.499 3.781 4.969 4.085 3.712 9.514 5.969 15.469 5.969 12.703 0 23-10.298 23-23 0-5.954-2.256-11.384-5.969-15.469-1.469-1.475-3.147-2.744-4.969-3.781zm4.969 3.781c3.854 4.113 6.219 9.637 6.219 15.719 0 12.703-10.297 23-23 23-6.081 0-11.606-2.364-15.719-6.219 4.16 4.144 9.883 6.719 16.219 6.719 12.703 0 23-10.298 23-23 0-6.335-2.575-12.06-6.719-16.219z" style="opacity:.05"/>
 <path d="m41.28 8.781c3.712 4.085 5.969 9.514 5.969 15.469 0 12.703-10.297 23-23 23-5.954 0-11.384-2.256-15.469-5.969 4.113 3.854 9.637 6.219 15.719 6.219 12.703 0 23-10.298 23-23 0-6.081-2.364-11.606-6.219-15.719z" style="opacity:.1"/>
 <path d="m31.25 2.375c8.615 3.154 14.75 11.417 14.75 21.13 0 12.426-10.07 22.5-22.5 22.5-9.708 0-17.971-6.135-21.12-14.75a23 23 0 0 0 44.875-7 23 23 0 0 0-16-21.875z" style="opacity:.2"/>
 <path d="m24 1c12.703 0 23 10.297 23 23s-10.297 23-23 23-23-10.297-23-23 10.297-23 23-23z" style="fill:url(#linearGradient3764)"/>
 <g transform="translate(1,1)"></g>
 <path d="m21 14a6 8 0 0 0-6 8 6 8 0 0 0 5 7.887v2.113h-2v2h2v2h1.996v-2h2.004v-2h-2.004v-2.121a6 8 0 0 0 5.004-7.879 6 8 0 0 0-6-8zm10 0 1 18h2l1-18h-4zm-10 1a5 7 0 0 1 5 7 5 7 0 0 1-5 7 5 7 0 0 1-5-7 5 7 0 0 1 5-7zm11 19v2h2v-2h-2z" style="opacity:.1"/>
 <path d="m30 13 1 18h1.996l1-18h-4zm1 20v2h2v-2h-2z" style="fill:#d662c5"/>
 <path d="m40.03 7.531c3.712 4.084 5.969 9.514 5.969 15.469 0 12.703-10.297 23-23 23-5.954 0-11.384-2.256-15.469-5.969 4.178 4.291 10.01 6.969 16.469 6.969 12.703 0 23-10.298 23-23 0-6.462-2.677-12.291-6.969-16.469z" style="opacity:.1"/>
 <path d="m19 28v3h-2v2h2v2h1.996v-2h2v-2h-2v-3h-1.996" style="fill:#d662c5"/>
 <path d="m20 13a6 8 0 0 0-6 8 6 8 0 0 0 6 8 6 8 0 0 0 6-8 6 8 0 0 0-6-8zm0 1a5 7 0 0 1 5 7 5 7 0 0 1-5 7 5 7 0 0 1-5-7 5 7 0 0 1 5-7z" style="fill:#d662c5"/>
</svg>

<svg xmlns="http://www.w3.org/2000/svg" viewBox="0 0 48 48">
 <defs>
  <linearGradient id="linearGradient3764" x1="1" x2="47" gradientUnits="userSpaceOnUse" gradientTransform="matrix(0,-1,1,0,-1.5e-6,47.999998)">
   <stop style="stop-color:#3d3d3d;stop-opacity:1"/>
   <stop offset="1" style="stop-color:#474747;stop-opacity:1"/>
  </linearGradient>
 </defs>
 <g>
  <path d="m 36.31 5 c 5.859 4.062 9.688 10.831 9.688 18.5 c 0 12.426 -10.07 22.5 -22.5 22.5 c -7.669 0 -14.438 -3.828 -18.5 -9.688 c 1.037 1.822 2.306 3.499 3.781 4.969 c 4.085 3.712 9.514 5.969 15.469 5.969 c 12.703 0 23 -10.298 23 -23 c 0 -5.954 -2.256 -11.384 -5.969 -15.469 c -1.469 -1.475 -3.147 -2.744 -4.969 -3.781 z m 4.969 3.781 c 3.854 4.113 6.219 9.637 6.219 15.719 c 0 12.703 -10.297 23 -23 23 c -6.081 0 -11.606 -2.364 -15.719 -6.219 c 4.16 4.144 9.883 6.719 16.219 6.719 c 12.703 0 23 -10.298 23 -23 c 0 -6.335 -2.575 -12.06 -6.719 -16.219 z" style="opacity:0.05"/>
  <path d="m 41.28 8.781 c 3.712 4.085 5.969 9.514 5.969 15.469 c 0 12.703 -10.297 23 -23 23 c -5.954 0 -11.384 -2.256 -15.469 -5.969 c 4.113 3.854 9.637 6.219 15.719 6.219 c 12.703 0 23 -10.298 23 -23 c 0 -6.081 -2.364 -11.606 -6.219 -15.719 z" style="opacity:0.1"/>
  <path d="m 31.25 2.375 c 8.615 3.154 14.75 11.417 14.75 21.13 c 0 12.426 -10.07 22.5 -22.5 22.5 c -9.708 0 -17.971 -6.135 -21.12 -14.75 a 23 23 0 0 0 44.875 -7 a 23 23 0 0 0 -16 -21.875 z" style="opacity:0.2"/>
 </g>
 <g>
  <path d="m 24 1 c 12.703 0 23 10.297 23 23 c 0 12.703 -10.297 23 -23 23 -12.703 0 -23 -10.297 -23 -23 0 -12.703 10.297 -23 23 -23 z" style="fill:url(#linearGradient3764);fill-opacity:1"/>
 </g>
 <g>
  <g>
   <g transform="translate(1,1)">
    <g style="opacity:0.1">
     <!-- color: #474747 -->
    </g>
   </g>
  </g>
 </g>
 <g>
  <g>
   <!-- color: #474747 -->
   <g>
    <path d="M 21 14 A 6 8 0 0 0 15 22 A 6 8 0 0 0 20 29.887 L 20 32 L 18 32 L 18 34 L 20 34 L 20 36 L 21.996 36 L 21.996 34 L 24 34 L 24 32 L 21.996 32 L 21.996 29.879 A 6 8 0 0 0 27 22 A 6 8 0 0 0 21 14 z M 31 14 L 32 32 L 34 32 L 35 14 L 31 14 z M 21 15 A 5 7 0 0 1 26 22 A 5 7 0 0 1 21 29 A 5 7 0 0 1 16 22 A 5 7 0 0 1 21 15 z M 32 34 L 32 36 L 34 36 L 34 34 L 32 34 z" style="fill:#000;opacity:0.1;fill-opacity:1;stroke:none;fill-rule:nonzero"/>
    <path d="m 30 13 l 1 18 l 1.996 0 l 1 -18 l -4 0 z m 1 20 l 0 2 l 2 0 l 0 -2 l -2 0 z" style="fill:#d662c5;fill-opacity:1;stroke:none;fill-rule:nonzero"/>
   </g>
  </g>
 </g>
 <g>
  <path d="m 40.03 7.531 c 3.712 4.084 5.969 9.514 5.969 15.469 0 12.703 -10.297 23 -23 23 c -5.954 0 -11.384 -2.256 -15.469 -5.969 4.178 4.291 10.01 6.969 16.469 6.969 c 12.703 0 23 -10.298 23 -23 0 -6.462 -2.677 -12.291 -6.969 -16.469 z" style="opacity:0.1"/>
 </g>
 <path d="m 19 28 0 3 -2 0 0 2 2 0 0 2 1.996 0 0 -2 l 2 0 l 0 -2 -2 0 0 -3 l -1.996 0" style="fill:#d662c5;fill-opacity:1;stroke:none;fill-rule:nonzero"/>
 <path d="m 20 13 a 6 8 0 0 0 -6 8 6 8 0 0 0 6 8 6 8 0 0 0 6 -8 6 8 0 0 0 -6 -8 z m 0 1 a 5 7 0 0 1 5 7 5 7 0 0 1 -5 7 5 7 0 0 1 -5 -7 5 7 0 0 1 5 -7 z" style="fill:#d662c5;opacity:1;fill-opacity:1;stroke:none"/>
</svg>
